icons/Finance/money-cny-circle-fill.svg

<svg viewBox="0 0 24 24" xmlns="http://www.w3.org/2000/svg"><path d="M12.0049 22.0029C6.48204 22.0029 2.00488 17.5258 2.00488 12.0029C2.00488 6.48008 6.48204 2.00293 12.0049 2.00293C17.5277 2.00293 22.0049 6.48008 22.0049 12.0029C22.0049 17.5258 17.5277 22.0029 12.0049 22.0029ZM13.0049 13.0029V12.0029H16.0049V10.0029H13.4191L15.5404 7.88161L14.1262 6.4674L12.0049 8.58872L9.88356 6.4674L8.46935 7.88161L10.5907 10.0029H8.00488V12.0029H11.0049V13.0029H8.00488V15.0029H11.0049V17.0029H13.0049V15.0029H16.0049V13.0029H13.0049Z"/></svg>

<svg xmlns="http://www.w3.org/2000/svg" viewBox="0 0 24 24">
    <g>
        <path fill="none" d="M0 0h24v24H0z"/>
        <path d="M12 22C6.477 22 2 17.523 2 12S6.477 2 12 2s10 4.477 10 10-4.477 10-10 10zm1-9v-1h3v-2h-2.586l2.122-2.121-1.415-1.415L12 8.586 9.879 6.464 8.464 7.88 10.586 10H8v2h3v1H8v2h3v2h2v-2h3v-2h-3z"/>
    </g>
</svg>
